svg/thermometer_chevron_up.svg

<svg xmlns="http://www.w3.org/2000/svg" viewBox="0 0 24 24"><path d="M17.41 11.83 20.58 15 22 13.59 17.41 9l-4.59 4.59L14.24 15zM10 13V5c0-1.66-1.34-3-3-3S4 3.34 4 5v8c-2.21 1.66-2.66 4.79-1 7s4.79 2.66 7 1 2.66-4.79 1-7a4.7 4.7 0 0 0-1-1M7 4c.55 0 1 .45 1 1v3H6V5c0-.55.45-1 1-1"/></svg>

<?xml version="1.0" encoding="UTF-8"?><!DOCTYPE svg PUBLIC "-//W3C//DTD SVG 1.1//EN" "http://www.w3.org/Graphics/SVG/1.1/DTD/svg11.dtd"><svg xmlns="http://www.w3.org/2000/svg" xmlns:xlink="http://www.w3.org/1999/xlink" version="1.1" id="mdi-thermometer-chevron-up" width="24" height="24" viewBox="0 0 24 24"><path d="M17.41 11.83L20.58 15L22 13.59L17.41 9L12.82 13.59L14.24 15L17.41 11.83M10 13V5C10 3.34 8.66 2 7 2S4 3.34 4 5V13C1.79 14.66 1.34 17.79 3 20S7.79 22.66 10 21 12.66 16.21 11 14C10.72 13.62 10.38 13.28 10 13M7 4C7.55 4 8 4.45 8 5V8H6V5C6 4.45 6.45 4 7 4Z" /></svg>
